X:192
T: Die beiden Waisenkinder
N: Q0118E
O: Mitteleuropa, Deutschland (BRD) , Rheinland
N: Schlusspause ergaenzt.
R: Ballade, Waise, boese Stiefmutter, Klage am Grab, Geist
M: 6/8
L: 1/8
K: G
d | BBBB2B | ccz3
c | cced2c | B3z
dc | BBBBcd | e3ed
c | dddd2c | B3z
dc | BBBBcd | e3ed
c | dddd2c | B2z3

@@@ Tune index: 1485
